X: 1052
T: Strike the Young Harp
R:double jig
B:O'Neill's 1052
Z:Transcribed by henrik.norbeck@mailbox.swipnet.se
M:6/8
L:1/8
K:C
c>AA B>GG|AGF E>DC|c>AA B>GG|cGE DEG|
c>de A>Bc|GAF E2D|C>CC C2E|GEC DEG||
cde e^fg|gag gec|cde e^fg|afd dBG|
cde g2g|a(^f/g/a/f/) g2=f|e>dc ced|cGE DEG||
ced ced|cGF EDC|ced ced|cGE DEG|
cde A>Bc|GAF E2D|C>CC C2E|GEC DEG||


